src/assets/img/icons/duotone-icons/Food/Cake.svg

<?xml version="1.0" encoding="UTF-8"?>
<svg width="24px" height="24px" viewBox="0 0 24 24" version="1.1" xmlns="http://www.w3.org/2000/svg" xmlns:xlink="http://www.w3.org/1999/xlink">
    <!-- Generator: Sketch 52.2 (67145) - http://www.bohemiancoding.com/sketch -->
    <title>Stockholm-icons / Food / Cake</title>
    <desc>Created with Sketch.</desc>
    <g id="Stockholm-icons-/-Food-/-Cake" stroke="none" stroke-width="1" fill="none" fill-rule="evenodd">
        <rect id="bound" x="0" y="0" width="24" height="24"></rect>
        <path d="M13,11 L17,11 C19.0758626,11 20.7823939,12.5812954 20.980747,14.6050394 L20.2928932,15.2928932 C19.1327768,16.4530096 18.0387961,17 17,17 C16.5220296,17 16.1880664,16.8518214 15.5648598,16.401988 C15.504386,16.3583378 15.425236,16.3005045 15.2756717,16.1912639 C14.1361881,15.3625486 13.3053476,15 12,15 C10.7177731,15 9.87894492,15.3373247 8.58005831,16.1531954 C8.42732855,16.2493619 8.35077622,16.2975179 8.28137728,16.3407226 C7.49918122,16.8276828 7.06530257,17 6.5,17 C5.8272085,17 5.18146841,16.7171497 4.58539107,16.2273674 C4.21125802,15.9199514 3.94722374,15.6135435 3.82536894,15.4354062 C3.58523105,15.132389 3.4977165,15.0219591 3.03793571,14.4468552 C3.3073102,12.4994956 4.97854212,11 7,11 L11,11 L11,9 L13,9 L13,11 Z" id="Combined-Shape" fill="#335EEA"></path>
        <path d="M12,7 C13.1045695,7 14,6.1045695 14,5 C14,4.26362033 13.3333333,3.26362033 12,2 C10.6666667,3.26362033 10,4.26362033 10,5 C10,6.1045695 10.8954305,7 12,7 Z" id="Oval-39" fill="#335EEA" opacity="0.3"></path>
        <path d="M21,17.3570374 L21,21 C21,21.5522847 20.5522847,22 20,22 L4,22 C3.44771525,22 3,21.5522847 3,21 L3,17.4976746 C3.098145,17.5882704 3.2035241,17.6804734 3.31568417,17.7726326 C4.24088818,18.5328503 5.30737928,19 6.5,19 C7.52608715,19 8.26628185,18.7060277 9.33838848,18.0385822 C9.41243034,17.9924871 9.49377318,17.9413176 9.64386645,17.8468046 C10.6511414,17.2141042 11.1835561,17 12,17 C12.7988191,17 13.2700619,17.2056332 14.0993283,17.8087361 C14.2431314,17.9137812 14.3282387,17.9759674 14.3943239,18.0236679 C15.3273176,18.697107 16.0099741,19 17,19 C18.3748985,19 19.7104312,18.4390637 21,17.3570374 Z" id="Path" fill="#335EEA" opacity="0.3"></path>
    </g>
</svg>

<svg width="24" height="24" viewBox="0 0 24 24" xmlns="http://www.w3.org/2000/svg"><g fill="none" fill-rule="evenodd"><path d="M0 0h24v24H0z"/><path d="M13 11h4a4 4 0 013.98 3.605l-.687.688C19.133 16.453 18.039 17 17 17c-.478 0-.812-.148-1.435-.598l-.29-.21C14.137 15.361 13.306 15 12 15c-1.282 0-2.121.337-3.42 1.153l-.299.188C7.5 16.828 7.065 17 6.5 17c-.673 0-1.319-.283-1.915-.773a4.214 4.214 0 01-.76-.792c-.24-.303-.327-.413-.787-.988A4 4 0 017 11h4V9h2v2z" fill="#335EEA"/><path d="M12 7a2 2 0 002-2c0-.736-.667-1.736-2-3-1.333 1.264-2 2.264-2 3a2 2 0 002 2zM21 17.357V21a1 1 0 01-1 1H4a1 1 0 01-1-1v-3.502c.098.09.204.182.316.275C4.24 18.533 5.307 19 6.5 19c1.026 0 1.766-.294 2.838-.961l.306-.192C10.65 17.214 11.184 17 12 17c.799 0 1.27.206 2.1.809l.294.215c.933.673 1.616.976 2.606.976 1.375 0 2.71-.56 4-1.643z" fill="#335EEA" opacity=".3"/></g></svg>
